X:1
T:Schindler, 76.76 D
T:Schindler, 76.76 D
T:John Robson Sweney (1837-1899)
T:Public Domain Courtesy of the Cyber Hymnal™
C:John Robson Sweney (1837-1899)
Z:Public Domain
Z:Courtesy of the Cyber Hymnal™
%%score ( 1 2 ) ( 3 4 )
L:1/8
Q:1/4=100
M:3/4
K:Ab
V:1 treble 
V:2 treble 
V:3 bass 
V:4 bass 
V:1
 [CE]2 | [Ec]3 [DB] [CA]>[DF] | [CE]2 [A,C]2 [CE]2 | [Ec]3 [DB] [CA]>[Ec] | [EB]4 E2 | %5
 [Ec]3 [DB] [CA]>[=EG] | [FB]2 [FA]2 [DF]2 | [CE]3 [EA] [DA]>[DG] | [CA]4 | %9
[M:9/8][Q:1/4=130] [CA]3 | [DB]3- [DB]2 [DB] ([DB][CA])[DB] | [Ec]3 [CA]3 [Ec]3 | %12
 [Ed]3- [Ed]2 [Ed] (dc)[EB] | [Ec]6 [Ec]2 [DB] | [CA]3- [CA]2 [Ec] (BA)[DF] | %15
 [CE]3 [A,C]3 ([CA]2 [DB]) | [Ec]3- [Ec]2 [Ec] !fermata![Ec]2 [DB] | [CA]6 |] %18
V:2
 x2 | x6 | x6 | x6 | x4 E2 | x6 | x6 | x6 | x4 |[M:9/8] x3 | x9 | x9 | x6 E2 x | x9 | x6 D2 x | %15
 x9 | x9 | x6 |] %18
V:3
 [A,,A,]2 | [A,,A,]3 [A,,E,] [A,,E,]>[A,,A,] | [A,,A,]2 [A,,E,]2 [A,,A,]2 | %3
 [A,,A,]3 [A,,E,] [A,,E,]>[A,,A,] | [E,G,]4 [E,G,]2 | A,3 [A,,E,] [A,,E,]>[C,B,] | %6
 [D,D]2 [D,D]2 [D,A,]2 | [E,A,]3 [E,C] [E,B,]>[E,B,] | [A,,A,]4 |[M:9/8] [A,,A,]3 | %10
 [E,G,]3- [E,G,]2 [E,G,] (G,F,)[E,G,] | [A,,A,]3 [A,,E,]3 A,3 | %12
 [E,G,]3- [E,G,]2 [E,B,] (B,A,)[E,G,] | A,6 [A,,E,]3 | [A,,E,]3- [A,,E,]2 [A,,A,] [D,F,]2 [D,A,] | %15
 [A,,A,]3 [A,,E,]3 [A,,A,]3 | [E,A,]3- [E,A,]2 [E,A,] !fermata![E,A,]2 [E,G,] | [A,,A,]6 |] %18
V:4
 x2 | x6 | x6 | x6 | x6 | A,3 x3 | x6 | x6 | x4 |[M:9/8] x3 | x6 E,2 x | x6 A,3 | x6 E,2 x | %13
 A,6 x3 | x9 | x9 | x9 | x6 |] %18

